**kern	**kern	**dynam
*part1	*part1	*part1
*staff2	*staff1	*
*I"Piano	*	*
*clefF4	*clefG2	*
*k[]	*k[]	*
=1	=1	=1
!	!LO:TX:a:i:t=legato	!
8DL	2f^^] 2g] 2b] 2ff]	.
8G	.	.
8B	.	.
8dJ	.	.
=	=	=
8fL>	2ryy	.
8g>	.	.
8b>	.	.
8ddJ>	.	.
=	=	=
!	!LO:TX:a:i:t=dim.	!
8ffL>	2ryy	.
8gg>	.	.
8bb>	.	.
8dddJ>)	.	.
*clefG2	*	*
=	=	=
8r	4fff	.
!	!	!LO:DY:a
(8bL	.	pp
8ddJ)	8r	.
8r	(8ff 8gg	.
=	=	=
8r	4ddd)	.
(8g	.	.
[4dd)	8r	.
.	(8ff 8gg	.
=	=	=
8ddL]	4bb)	.
(8dJ	.	.
[4g)	8r	.
.	(8b 8ff	.
=	=	=
8gL]	4gg)	.
8BJ	.	.
4d	8r	.
.	(8g 8dd	pp <
*clefF4	*	*
=	=	=
8r	4.ff)	.
8G	.	.
[4B	.	.
.	(8f 8g	.
=	=	=
*-	*-	*-
!!!system-decoration: {(s1,s2)}
!!!RDF**kern: > = above
